src/svg/makealias.svg

<?xml version="1.0" encoding="UTF-8" standalone="no"?>
<svg width="35px" height="35px" viewBox="0 0 35 35" version="1.1" xmlns="http://www.w3.org/2000/svg" xmlns:xlink="http://www.w3.org/1999/xlink">
    <defs></defs>
    <g id="Page-1" stroke="none" stroke-width="1" fill="none" fill-rule="evenodd">
        <g id="makealias">
            <g id="bg-copy" fill="#FFFFFF" opacity="0.00999999978">
                <rect id="bg" x="0" y="0" width="35" height="35"></rect>
            </g>
            <path d="M22,10.0781 L11.75,10.1561 L15.244,13.2761 C14.955,13.5881 14.717,13.8471 14.672,13.9061 C14.516,14.1091 13.891,15.0311 13.703,15.4221 C13.516,15.8121 13.141,16.8121 13.031,17.4531 C12.931,18.0421 12.937,19.1091 12.953,19.5621 C12.968,19.9851 13.113,20.8201 13.25,21.2031 C13.469,21.8121 13.594,22.1411 13.875,22.5781 C14.191,23.0701 14.468,23.3451 14.906,23.7661 C15.297,24.1411 17.094,25.0001 17.094,25.0001 C16.812,24.6411 16.281,23.6091 16.156,23.2501 C16.09,23.0601 15.917,22.1391 15.875,21.7191 C15.828,21.2501 15.797,20.5941 15.812,20.1251 C15.826,19.7161 15.914,19.3161 16.016,18.9531 C16.125,18.5621 16.444,18.0461 16.703,17.6871 C16.906,17.4061 17.151,17.1151 17.5,16.7811 C17.754,16.5371 18.051,16.2781 18.354,16.0541 L21.969,19.2811 L22,10.0781 Z" id="arrow-border" fill="#FFFFFF"></path>
            <path d="M20.9648,17.2402 L20.9608,11.0562 L14.7998,11.0602 L16.5978,12.8622 C16.4598,13.0082 16.2718,13.2072 16.1608,13.3462 C15.8838,13.6932 15.7178,13.8832 15.5508,14.0782 C15.4328,14.2162 15.2888,14.3952 15.1738,14.5522 C15.0148,14.7692 14.8938,14.9822 14.8128,15.1272 C14.7018,15.3232 14.5868,15.5872 14.4458,15.8772 C14.2498,16.2812 14.1838,16.6232 14.1268,16.8592 C14.0878,17.0192 13.9968,17.4302 13.9608,17.8122 C13.9328,18.1022 13.9528,18.4362 13.9528,18.5712 C13.9528,18.8072 13.9288,19.0912 13.9798,19.5512 C14.0268,19.9722 14.2758,20.9022 14.4618,21.2732 C14.6178,21.5862 14.9238,22.2032 14.9238,22.2032 C14.9238,22.2032 14.7538,20.6852 14.8078,19.9182 C14.8398,19.4802 15.0428,18.7352 15.3008,18.1902 C15.3458,18.0972 15.3538,17.9802 15.4868,17.7682 C15.5898,17.6062 15.7268,17.3822 15.8418,17.2002 C16.0558,16.8632 16.4958,16.3252 16.6008,16.1852 C16.7698,15.9602 17.2608,15.5132 17.5388,15.2682 C17.6808,15.1432 18.0318,14.8492 18.3318,14.6002 L20.9648,17.2402 Z" id="arrow" fill="#000000"></path>
        </g>
    </g>
</svg>

<svg height="35" viewBox="0 0 35 35" width="35" xmlns="http://www.w3.org/2000/svg"><g fill="none" fill-rule="evenodd"><path d="m22 10.0781-10.25.078 3.494 3.12c-.289.312-.527.571-.572.63-.156.203-.781 1.125-.969 1.516-.187.39-.562 1.39-.672 2.031-.1.589-.094 1.656-.078 2.109.015.423.16 1.258.297 1.641.219.609.344.938.625 1.375.316.492.593.767 1.031 1.188.391.375 2.188 1.234 2.188 1.234-.282-.359-.813-1.391-.938-1.75-.066-.19-.239-1.111-.281-1.531-.047-.469-.078-1.125-.063-1.594.014-.409.102-.809.204-1.172.109-.391.428-.907.687-1.266.203-.281.448-.572.797-.906.254-.244.551-.503.854-.727l3.615 3.227z" fill="#fff"/><path d="m20.9648 17.2402-.004-6.184-6.161.004 1.798 1.802c-.138.146-.326.345-.437.484-.277.347-.443.537-.61.732-.118.138-.262.317-.377.474-.159.217-.28.43-.361.575-.111.196-.226.46-.367.75-.196.404-.262.746-.319.982-.039.16-.13.571-.166.953-.028.29-.008.624-.008.759 0 .236-.024.52.027.98.047.421.296 1.351.482 1.722.156.313.462.93.462.93s-.17-1.518-.116-2.285c.032-.438.235-1.183.493-1.728.045-.093.053-.21.186-.422.103-.162.24-.386.355-.568.214-.337.654-.875.759-1.015.169-.225.66-.672.938-.917.142-.125.493-.419.793-.668z" fill="#000"/></g></svg>
